sprites/streets-v8/_svg/playground-11.svg

<svg viewBox="-4 -4 19 19" width="19" height="19" data-reactid=".0.1.1.$playground-11=1svg14.0.0"><rect x="-3" y="-3" rx="8.5" ry="8.5" width="17" height="17" stroke="#fff" style="stroke-linejoin:round;stroke-miterlimit:4px;" fill="#fff" stroke-width="2" data-reactid=".0.1.1.$playground-11=1svg14.0.0.0"></rect><rect x="-3" y="-3" width="17" height="17" rx="8.5" ry="8.5" fill="#6b7f33" data-reactid=".0.1.1.$playground-11=1svg14.0.0.1"></rect><path fill="#fff" d="M 3 1 L 1 2.5 L 1 9.5 C 1 9.5 1 10 1.5 10 C 2 10 2 9.5 2 9.5 L 2 9 L 4 9 L 4 9.5 C 4 9.5 4 10 4.5 10 C 5 10 5 9.5 5 9.5 L 5 6.5 C 5.487815 6.5 5.7239705 6.6254583 5.9765625 6.8535156 C 6.2291555 7.0815729 6.468051 7.453089 6.734375 7.890625 C 7.000699 8.328161 7.2932591 8.8315189 7.7675781 9.2597656 C 8.2418981 9.6880123 8.928112 10 9.75 10 L 10 10 L 10 8.5 L 9.75 8.5 C 9.262185 8.5 9.0260305 8.3745417 8.7734375 8.1464844 C 8.5208455 7.9184271 8.281949 7.546911 8.015625 7.109375 C 7.749301 6.671839 7.4567409 6.1684811 6.9824219 5.7402344 C 6.5081019 5.3119877 5.821888 5 5 5 L 5 2.5 L 3 1 z M 2 6 L 4 6 L 4 7 L 2 7 L 2 6 z M 2 7.5 L 4 7.5 L 4 8.5 L 2 8.5 L 2 7.5 z " data-reactid=".0.1.1.$playground-11=1svg14.0.0.3:$playground-11=1svg-0-fill"></path></svg>

<?xml version="1.0" encoding="utf-8"?>
<!-- Generator: Adobe Illustrator 17.1.0, SVG Export Plug-In . SVG Version: 6.00 Build 0)  -->
<!DOCTYPE svg PUBLIC "-//W3C//DTD SVG 1.1//EN" "http://www.w3.org/Graphics/SVG/1.1/DTD/svg11.dtd">
<svg version="1.1"
	 id="svg2" xmlns:svg="http://www.w3.org/2000/svg" xmlns:cc="http://creativecommons.org/ns#" xmlns:dc="http://purl.org/dc/elements/1.1/" xmlns:rdf="http://www.w3.org/1999/02/22-rdf-syntax-ns#"
	 xmlns="http://www.w3.org/2000/svg" xmlns:xlink="http://www.w3.org/1999/xlink" x="0px" y="0px" width="19px" height="19px"
	 viewBox="0 0 19 19" enable-background="new 0 0 19 19" xml:space="preserve">
<ellipse id="ellipse4" fill="#FFFFFF" cx="9.5" cy="9.5" rx="9.5" ry="9.5"/>
<ellipse id="ellipse6" fill="#7E9A4C" cx="9.5" cy="9.5" rx="8.5" ry="8.5"/>
<g id="g8" transform="translate(4,4)">
	<path id="path5096" fill="#FFFFFF" d="M3,1L1,2.5v7c0,0,0,0.5,0.5,0.5S2,9.5,2,9.5V9h2v0.5c0,0,0,0.5,0.5,0.5S5,9.5,5,9.5v-3
		c0.5,0,0.7,0.1,1,0.4c0.3,0.2,0.5,0.6,0.8,1s0.6,0.9,1,1.4C8.3,9.7,9,10,9.8,10H10V8.5H9.8c-0.5,0-0.7-0.1-1-0.4
		C8.5,7.9,8.3,7.5,8,7.1S7.5,6.2,7,5.7C6.5,5.3,5.8,5,5,5V2.5L3,1z M3,3c0.6,0,1,0.4,1,1S3.6,5,3,5S2,4.6,2,4S2.4,3,3,3z M2,6h2v2H2
		V6z"/>
</g>
</svg>
